src/assets/images/logomark.svg

<svg height="32" viewBox="0 0 48 32" width="48" xmlns="http://www.w3.org/2000/svg"><path d="m29.3669604 0-7.844 12.732-3.21 5.21-3.244 5.266c-1.0192047.8591608-2.3643191 1.2273398-3.679 1.007-.936614-.1518338-1.8017594-.5943769-2.47299998-1.265-.845-.845-1.314-2.084-1.287-3.399.025-1.194.453-2.26 1.174-2.924.946-.87 1.89599998-1.204 2.79799998-1.204 1.337 0 2.566.733 3.511 1.536l.03.025c.003.003.232.238.431.563l4.171-6.65c-2.176-1.763-4.548-2.779-6.913-3.045-3.25799998-.369-6.49999998.682-9.19499998 3.163-2.241 2.063-3.567 5.117-3.634 8.379-.04843971 2.2296528.49832991 4.4319193 1.584 6.38.52436693.941432 1.17581295 1.8062131 1.936 2.57 1.06346047 1.0633057 2.31541812 1.9195336 3.692 2.525 1.54977274.6824662 3.22461418 1.035 4.91799998 1.035 3.118 0 6.236-1.186 8.61-3.56l.316-.317.828-1.343 2.905-4.715 4.627-7.51 4.702 7.51h-6.459l-4.215 7.63h24.451l-.03-.048z" fill="#fff"/></svg>

<?xml version="1.0" encoding="UTF-8"?>
<svg width="48px" height="32px" viewBox="0 0 48 32" version="1.1" xmlns="http://www.w3.org/2000/svg" xmlns:xlink="http://www.w3.org/1999/xlink">
    <title>Artboard</title>
    <g id="Artboard" stroke="none" stroke-width="1" fill="none" fill-rule="evenodd">
        <path d="M29.3669604,0 L21.5229604,12.732 L18.3129604,17.942 L15.0689604,23.208 C14.0497557,24.0671608 12.7046413,24.4353398 11.3899604,24.215 C10.4533464,24.0631662 9.588201,23.6206231 8.91696042,22.95 C8.07196042,22.105 7.60296042,20.866 7.62996042,19.551 C7.65496042,18.357 8.08296042,17.291 8.80396042,16.627 C9.74996042,15.757 10.6999604,15.423 11.6019604,15.423 C12.9389604,15.423 14.1679604,16.156 15.1129604,16.959 L15.1429604,16.984 C15.1459604,16.987 15.3749604,17.222 15.5739604,17.547 L19.7449604,10.897 C17.5689604,9.134 15.1969604,8.118 12.8319604,7.852 C9.57396042,7.483 6.33196042,8.534 3.63696042,11.015 C1.39596042,13.078 0.069960418,16.132 0.00296041796,19.394 C-0.0454792856,21.6236528 0.501290326,23.8259193 1.58696042,25.774 C2.11132735,26.715432 2.76277337,27.5802131 3.52296042,28.344 C4.58642089,29.4073057 5.83837854,30.2635336 7.21496042,30.869 C8.76473316,31.5514662 10.4395746,31.904 12.1329604,31.904 C15.2509604,31.904 18.3689604,30.718 20.7429604,28.344 L21.0589604,28.027 L21.8869604,26.684 L24.7919604,21.969 L29.4189604,14.459 L34.1209604,21.969 L27.6619604,21.969 L23.4469604,29.599 L47.8979604,29.599 L47.8679604,29.551 L29.3669604,0 Z" id="Path" fill="#FFFFFF" fill-rule="nonzero"></path>
    </g>
</svg>
